build/assets/images/proyectos/logos/logo-canal-march.svg

<svg width="200" height="200" viewBox="0 0 200 200" fill="none" xmlns="http://www.w3.org/2000/svg">
<rect width="200" height="200" fill="white"/>
<g clip-path="url(#clip0)">
<path fill-rule="evenodd" clip-rule="evenodd" d="M169.443 101.012C169.986 100.251 171.343 99.1875 173.003 99.1875C173.907 99.1875 174.691 99.4915 175.204 100.008C175.747 100.556 176.078 101.316 176.078 102.777V110.591H180V103.08C180 100.556 179.457 99.066 178.492 97.9105C177.285 96.4507 175.446 95.5383 173.425 95.5383C171.983 95.5351 170.583 96.0166 169.443 96.9067V89H165.523V110.591H169.443V101.012ZM160.697 105.3C160.064 106.272 158.797 107.245 157.198 107.245C154.816 107.245 153.156 105.543 153.156 103.232C153.156 100.981 154.845 99.1875 157.108 99.1875C158.525 99.1875 159.702 99.917 160.485 100.951L163.261 98.4877C161.903 96.7237 159.641 95.5377 157.107 95.5377C152.644 95.5377 149.235 98.9428 149.235 103.232C149.235 107.489 152.553 110.895 157.078 110.895C159.822 110.895 161.994 109.891 163.713 107.581L160.697 105.3ZM149.085 95.6598C148.663 95.5991 148.331 95.5377 147.759 95.5377C145.98 95.5377 144.382 96.2378 143.507 97.3322V95.8422H139.736V110.591H143.656V101.316C144.139 100.434 145.496 99.1875 147.215 99.1875C147.788 99.1875 148.361 99.2483 148.633 99.3394L149.085 95.6598ZM136.418 95.8422H132.648V97.0283C131.501 96.0853 130.024 95.5377 128.365 95.5377C124.384 95.5377 121.187 98.883 121.187 103.232C121.187 105.239 121.911 107.063 123.057 108.401C124.354 109.922 126.405 110.895 128.577 110.895C130.054 110.895 131.442 110.439 132.648 109.405V110.591H136.419L136.418 95.8422ZM132.498 105.421C131.743 106.516 130.445 107.245 128.968 107.245C126.766 107.245 125.108 105.543 125.108 103.232C125.108 101.103 126.586 99.1875 128.877 99.1875C130.303 99.1832 131.645 99.8599 132.498 101.012V105.421ZM98.8682 110.591V101.012C99.4108 100.312 100.617 99.1875 102.277 99.1875C103.031 99.1875 103.876 99.4307 104.479 100.099C104.931 100.617 105.203 101.285 105.203 102.623V110.591H109.123V102.776C109.123 102.167 109.064 101.62 109.003 101.133C109.516 100.373 110.843 99.1875 112.531 99.1875C113.286 99.1875 114.131 99.4307 114.733 100.099C115.187 100.617 115.457 101.285 115.457 102.623V110.591H119.378V102.776C119.378 100.586 118.835 99.0653 117.9 97.9098C116.723 96.45 114.792 95.5377 112.772 95.5377C110.6 95.5377 108.76 96.6022 107.585 97.849C106.438 96.4488 104.659 95.5377 102.668 95.5377C101.251 95.5377 99.8638 95.9943 98.7174 97.0283V95.8422H94.9474V110.591H98.8682Z" fill="black"/>
<path fill-rule="evenodd" clip-rule="evenodd" d="M91.5789 89H87.6024V110.59H91.5789V89ZM84.8495 95.8419H81.0259V97.0276C79.8636 96.085 78.3647 95.5377 76.6821 95.5377C72.6444 95.5377 69.4018 98.8829 69.4018 103.231C69.4018 105.238 70.1362 107.062 71.2985 108.401C72.6136 109.921 74.6942 110.894 76.896 110.894C78.3955 110.894 79.8024 110.437 81.0256 109.404V110.59H84.8493L84.8495 95.8419ZM80.8733 105.421C80.1081 106.515 78.7924 107.245 77.2942 107.245C75.061 107.245 73.3781 105.542 73.3781 103.231C73.3781 101.103 74.8776 99.1871 77.2024 99.1871C78.6475 99.1831 80.0092 99.8597 80.8733 101.011V105.421ZM56.8601 110.59V101.011C57.4104 100.252 58.7876 99.1871 60.4696 99.1871C61.3877 99.1871 62.1826 99.491 62.7028 100.009C63.2531 100.556 63.5901 101.316 63.5901 102.775V110.59H67.5661V103.08C67.5661 100.556 67.0152 99.0662 66.0369 97.9107C64.8134 96.4513 62.947 95.5386 60.8976 95.5386C59.2457 95.5386 57.8387 96.1162 56.7068 97.0286V95.8422H52.8835V110.59H56.8601ZM50.7421 95.8422H46.9179V97.0279C45.7555 96.0853 44.2567 95.538 42.5747 95.538C38.537 95.538 35.2951 98.8829 35.2951 103.231C35.2951 105.238 36.0288 107.063 37.1912 108.401C38.5066 109.921 40.5868 110.894 42.7892 110.894C44.2881 110.894 45.6951 110.438 46.9189 109.404V110.59H50.7425L50.7421 95.8422ZM46.7659 105.421C46.0014 106.516 44.6851 107.246 43.1869 107.246C40.9536 107.246 39.2713 105.542 39.2713 103.231C39.2713 101.103 40.7702 99.1875 43.095 99.1875C44.5401 99.1834 45.9018 99.86 46.7659 101.012V105.421ZM31.6238 105.299C30.9813 106.273 29.6963 107.246 28.0755 107.246C25.6589 107.246 23.9779 105.542 23.9779 103.231C23.9779 100.981 25.6906 99.1875 27.9849 99.1875C29.4227 99.1875 30.6154 99.9175 31.4103 100.951L34.2243 98.4877C32.8477 96.7244 30.5533 95.5383 27.984 95.5383C23.4567 95.5383 20 98.9433 20 103.231C20 107.489 23.3649 110.895 27.9536 110.895C30.7371 110.895 32.9395 109.891 34.6833 107.58L31.6238 105.299Z" fill="black"/>
</g>
<defs>
<clipPath id="clip0">
<rect width="160" height="21.8947" fill="white" transform="translate(20 89)"/>
</clipPath>
</defs>
</svg>

<svg width="200" height="200" fill="none" xmlns="http://www.w3.org/2000/svg"><path fill="#fff" d="M0 0h200v200H0z"/><g clip-path="url(#clip0)" fill-rule="evenodd" clip-rule="evenodd" fill="#000"><path d="M169.443 101.012c.543-.761 1.9-1.825 3.56-1.825.904 0 1.688.305 2.201.821.543.548.874 1.308.874 2.769v7.814H180v-7.511c0-2.524-.543-4.014-1.508-5.17a6.57 6.57 0 00-5.067-2.372 6.444 6.444 0 00-3.982 1.369V89h-3.92v21.591h3.92v-9.579zm-8.746 4.288c-.633.972-1.9 1.945-3.499 1.945-2.382 0-4.042-1.702-4.042-4.013 0-2.251 1.689-4.044 3.952-4.044 1.417 0 2.594.729 3.377 1.763l2.776-2.463c-1.358-1.764-3.62-2.95-6.154-2.95-4.463 0-7.872 3.405-7.872 7.694 0 4.257 3.318 7.663 7.843 7.663 2.744 0 4.916-1.004 6.635-3.314l-3.016-2.281zm-11.612-9.64c-.422-.06-.754-.122-1.326-.122-1.779 0-3.377.7-4.252 1.794v-1.49h-3.771v14.749h3.92v-9.275c.483-.882 1.84-2.129 3.559-2.129.573 0 1.146.061 1.418.152l.452-3.68zm-12.667.182h-3.77v1.186c-1.147-.943-2.624-1.49-4.283-1.49-3.981 0-7.178 3.345-7.178 7.694 0 2.007.724 3.831 1.87 5.169 1.297 1.521 3.348 2.494 5.52 2.494 1.477 0 2.865-.456 4.071-1.49v1.186h3.771l-.001-14.749zm-3.92 9.579a4.277 4.277 0 01-3.53 1.824c-2.202 0-3.86-1.702-3.86-4.013 0-2.129 1.478-4.044 3.769-4.044a4.488 4.488 0 013.621 1.824v4.409zm-33.63 5.17v-9.579c.543-.7 1.749-1.825 3.409-1.825.754 0 1.599.244 2.202.912.452.518.724 1.186.724 2.524v7.968h3.92v-7.815c0-.609-.059-1.156-.12-1.643.513-.76 1.84-1.945 3.528-1.945.755 0 1.6.243 2.202.911.454.518.724 1.186.724 2.524v7.968h3.921v-7.815c0-2.19-.543-3.71-1.478-4.866-1.177-1.46-3.108-2.372-5.128-2.372-2.172 0-4.012 1.064-5.187 2.311a6.353 6.353 0 00-4.917-2.311c-1.417 0-2.804.456-3.95 1.49v-1.186h-3.77v14.749h3.92zM91.579 89h-3.977v21.59h3.977V89zm-6.73 6.842h-3.823v1.186c-1.162-.943-2.661-1.49-4.344-1.49-4.038 0-7.28 3.345-7.28 7.693 0 2.007.734 3.831 1.897 5.17 1.315 1.52 3.395 2.493 5.597 2.493 1.5 0 2.906-.457 4.13-1.49v1.186h3.823V95.842zm-3.976 9.579c-.765 1.094-2.08 1.824-3.579 1.824-2.233 0-3.916-1.703-3.916-4.014 0-2.128 1.5-4.044 3.824-4.044a4.574 4.574 0 013.671 1.824v4.41zM56.86 110.59v-9.579c.55-.759 1.928-1.824 3.61-1.824.918 0 1.713.304 2.233.822.55.547.887 1.307.887 2.766v7.815h3.976v-7.51c0-2.524-.55-4.014-1.53-5.17a6.702 6.702 0 00-5.138-2.371c-1.652 0-3.06.577-4.191 1.49v-1.187h-3.824v14.748h3.977zm-6.118-14.748h-3.824v1.186c-1.163-.943-2.661-1.49-4.343-1.49-4.038 0-7.28 3.345-7.28 7.693 0 2.007.734 3.832 1.896 5.17 1.316 1.52 3.396 2.493 5.598 2.493 1.5 0 2.906-.456 4.13-1.49v1.186h3.824V95.842zm-3.976 9.579c-.765 1.095-2.08 1.825-3.58 1.825-2.232 0-3.915-1.704-3.915-4.015 0-2.128 1.5-4.043 3.824-4.043a4.572 4.572 0 013.67 1.824v4.409zm-15.142-.122c-.643.974-1.928 1.947-3.548 1.947-2.417 0-4.098-1.704-4.098-4.015 0-2.25 1.713-4.043 4.007-4.043 1.438 0 2.63.73 3.425 1.763l2.814-2.463c-1.376-1.764-3.67-2.95-6.24-2.95-4.527 0-7.984 3.405-7.984 7.693 0 4.258 3.365 7.664 7.954 7.664 2.783 0 4.986-1.004 6.73-3.315l-3.06-2.281z"/></g><defs><clipPath id="clip0"><path fill="#fff" transform="translate(20 89)" d="M0 0h160v21.895H0z"/></clipPath></defs></svg>
